icons/lines/volume-low-one.svg

<svg xmlns="http://www.w3.org/2000/svg" width="24" height="24" viewBox="0 0 24 24" fill="none" stroke="currentColor" stroke-width="2" stroke-linecap="round" stroke-linejoin="round" >
  <path d="M3.33008 9.99997V14C3.33008 16 4.33008 17 6.33008 17H7.76008C8.13008 17 8.50008 17.11 8.82008 17.3L11.7401 19.13C14.2601 20.71 16.3301 19.56 16.3301 16.59V7.40997C16.3301 4.42997 14.2601 3.28997 11.7401 4.86997L8.82008 6.69997C8.50008 6.88997 8.13008 6.99997 7.76008 6.99997H6.33008C4.33008 6.99997 3.33008 7.99997 3.33008 9.99997Z"/>
  <path d="M19.3301 8C21.1101 10.37 21.1101 13.63 19.3301 16"/>
  </svg>

<svg xmlns="http://www.w3.org/2000/svg" width="24" height="24" viewBox="0 0 24 24" fill="none" stroke="currentColor" stroke-width="2" stroke-linecap="round" stroke-linejoin="round">
  <path d="M19.33 8a6.66 6.66 0 0 1 0 8" />
  <path d="M3.33 14q0 3 3 3h1.43a2 2 0 0 1 1.06.3l2.92 1.83c2.52 1.58 4.59.43 4.59-2.54V7.41c0-2.98-2.07-4.12-4.59-2.54L8.82 6.7a2 2 0 0 1-1.06.3H6.33q-3 0-3 3z" />
</svg>
